X: 17
T: filles
M: 6/4
L: 1/8
K:C clef=treble-8 octave=1 
V:1
A,12| A,12| C12| G,12|
C12| D12| C12| C12|
C12| D12| E12| D12|
C12| B,12| A,12| A,12|
E12| B,12| D12| G,12|
C12| D12| C12| C12|
C12| D12| E12| D12|
C12| B,12| A,12| A,12|
A,12|

